X:1
T:Clay’s Litany, 77.76
T:Clay’s Litany, 77.76
T:Frederic Emes Clay, 1874
T:Public Domain Courtesy of the Cyber Hymnal™
C:Frederic Emes Clay, 1874
Z:Public Domain
Z:Courtesy of the Cyber Hymnal™
%%score ( 1 2 ) ( 3 4 )
L:1/8
Q:1/4=112
M:4/4
K:F
V:1 treble 
V:2 treble 
V:3 bass 
V:4 bass 
V:1
 [CF]2 [CG]2 [CE]2 [CF]2 | G3 z B ([FA]2 [EG]2) | [EG]2 [FA]2 [FG]2 [Fd]2 | c3 z B [FA]4 | %4
 [Fc]2 [G_e]2 [Ad]2 [^Fc]2 | [GB]2 [DA]2 (A2 B2) | [DB]2 [^CA]2 [DF]2 [EG]2 | [EG]4 F4 |] %8
V:2
 x8 | D2 F2 x5 | x8 | E2 G2 x5 | x8 | x4 D4 | x8 | x4 F4 |] %8
V:3
 [F,A,]2 [F,B,]2 [F,G,]2 [F,A,]2 | [B,,B,]2 [G,,D]2 [C,C]4 x | [B,C]2 [A,C]2 [B,D]2 [G,B,]2 | %3
 [C,G,]2 [E,C]2 [F,C]4 x | [A,C]2 [G,B,]2 [^F,A,]2 [D,D]2 | [E,D]2 [^F,C]2 (C2 B,2) | %6
 [G,,G,]2 [A,,E,]2 [D,F,]2 [C,B,]2 | [C,B,]4 [F,A,]4 |] %8
V:4
 x8 | x9 | x8 | x9 | x8 | x4 G,4 | x8 | x8 |] %8

